imgs/cake-token.svg

<svg width="96" height="96" viewBox="0 0 96 96" fill="none" xmlns="http://www.w3.org/2000/svg">
<circle cx="48" cy="48" r="48" fill="url(#paint0_linear_10493:36952)"/>
<path fill-rule="evenodd" clip-rule="evenodd" d="M47.8581 79.8749C38.5164 79.8678 30.9915 77.6262 25.7338 73.5999C20.413 69.5252 17.5903 63.7429 17.5903 57.2001C17.5903 50.8957 20.4068 46.3497 23.5936 43.2769C26.0911 40.8688 28.8471 39.3265 30.7661 38.4394C30.3322 37.1076 29.7907 35.364 29.3063 33.5632C28.6582 31.1534 28.0223 28.3261 28.0223 26.2543C28.0223 23.802 28.557 21.3392 29.9986 19.4255C31.5217 17.4037 33.8146 16.3206 36.5731 16.3206C38.7289 16.3206 40.5593 17.1202 41.9922 18.4998C43.3619 19.8184 44.2735 21.5697 44.9029 23.3952C46.0089 26.6029 46.4396 30.633 46.5604 34.6548H49.2026C49.3234 30.633 49.754 26.6029 50.8601 23.3952C51.4895 21.5697 52.4011 19.8184 53.7708 18.4998C55.2037 17.1202 57.034 16.3206 59.1899 16.3206C61.9484 16.3206 64.2413 17.4037 65.7644 19.4255C67.206 21.3392 67.7407 23.802 67.7407 26.2543C67.7407 28.3261 67.1048 31.1534 66.4566 33.5632C65.9722 35.364 65.4308 37.1076 64.9968 38.4394C66.9159 39.3265 69.6719 40.8688 72.1693 43.2769C75.3562 46.3497 78.1726 50.8957 78.1726 57.2001C78.1726 63.7429 75.35 69.5252 70.0292 73.5999C64.7715 77.6262 57.2466 79.8678 47.9049 79.8749H47.8581Z" fill="#633001"/>
<path d="M36.573 18.6528C32.5327 18.6528 30.6729 21.6977 30.6729 25.9088C30.6729 29.2559 32.8339 35.9594 33.7205 38.569C33.9199 39.1559 33.6065 39.799 33.0351 40.0266C29.797 41.3164 20.241 46.039 20.241 56.8546C20.241 68.2477 29.952 76.838 47.86 76.8516C47.8671 76.8516 47.8742 76.8516 47.8814 76.8516C47.8885 76.8516 47.8956 76.8516 47.9028 76.8516C65.8107 76.838 75.5218 68.2477 75.5218 56.8546C75.5218 46.039 65.9658 41.3164 62.7277 40.0266C62.1562 39.799 61.8429 39.1559 62.0423 38.569C62.9289 35.9594 65.0898 29.2559 65.0898 25.9088C65.0898 21.6977 63.23 18.6528 59.1898 18.6528C53.374 18.6528 51.9243 26.9751 51.8209 35.907C51.814 36.5033 51.3368 36.9871 50.7465 36.9871H45.0163C44.4259 36.9871 43.9488 36.5033 43.9419 35.907C43.8385 26.9751 42.3887 18.6528 36.573 18.6528Z" fill="#D1884F"/>
<path d="M47.9028 73.202C34.7449 73.202 20.2637 66.0868 20.241 56.8762C20.241 56.8906 20.241 56.905 20.241 56.9193C20.241 68.3216 29.9675 76.9164 47.9028 76.9164C65.838 76.9164 75.5645 68.3216 75.5645 56.9193C75.5645 56.905 75.5645 56.8906 75.5645 56.8762C75.5418 66.0868 61.0607 73.202 47.9028 73.202Z" fill="#FEDC90"/>
<path d="M40.5919 54.0472C40.5919 57.1569 39.1371 58.7765 37.3426 58.7765C35.548 58.7765 34.0933 57.1569 34.0933 54.0472C34.0933 50.9375 35.548 49.3179 37.3426 49.3179C39.1371 49.3179 40.5919 50.9375 40.5919 54.0472Z" fill="#633001"/>
<path d="M61.7122 54.0472C61.7122 57.1569 60.2575 58.7765 58.4629 58.7765C56.6684 58.7765 55.2136 57.1569 55.2136 54.0472C55.2136 50.9375 56.6684 49.3179 58.4629 49.3179C60.2575 49.3179 61.7122 50.9375 61.7122 54.0472Z" fill="#633001"/>
<defs>
<linearGradient id="paint0_linear_10493:36952" x1="48" y1="0" x2="48" y2="96" gradientUnits="userSpaceOnUse">
<stop stop-color="#53DEE9"/>
<stop offset="1" stop-color="#1FC7D4"/>
</linearGradient>
</defs>
</svg>

<svg xmlns="http://www.w3.org/2000/svg" width="96" height="96" fill="none"><circle cx="48" cy="48" r="48" fill="url(#a)"/><path fill="#633001" fill-rule="evenodd" d="M47.858 79.875c-9.342-.007-16.866-2.249-22.124-6.275-5.321-4.075-8.144-9.857-8.144-16.4 0-6.304 2.817-10.85 6.004-13.923 2.497-2.408 5.253-3.95 7.172-4.838a99.818 99.818 0 0 1-1.46-4.876c-.648-2.41-1.284-5.237-1.284-7.309 0-2.452.535-4.915 1.977-6.829 1.523-2.021 3.816-3.104 6.574-3.104 2.156 0 3.986.8 5.42 2.179 1.369 1.318 2.28 3.07 2.91 4.895 1.106 3.208 1.537 7.238 1.657 11.26h2.643c.12-4.022.551-8.052 1.657-11.26.63-1.825 1.541-3.577 2.91-4.895 1.434-1.38 3.264-2.18 5.42-2.18 2.758 0 5.051 1.084 6.574 3.105 1.442 1.914 1.977 4.377 1.977 6.83 0 2.071-.636 4.898-1.284 7.308a99.707 99.707 0 0 1-1.46 4.876c1.919.888 4.675 2.43 7.172 4.838 3.187 3.073 6.004 7.619 6.004 13.923 0 6.543-2.823 12.325-8.144 16.4-5.257 4.026-12.782 6.268-22.124 6.275z" clip-rule="evenodd"/><path fill="#D1884F" d="M36.573 18.653c-4.04 0-5.9 3.045-5.9 7.256 0 3.347 2.16 10.05 3.048 12.66a1.177 1.177 0 0 1-.686 1.458c-3.238 1.29-12.794 6.012-12.794 16.828 0 11.393 9.711 19.983 27.619 19.997h.043c17.908-.014 27.619-8.604 27.619-19.997 0-10.816-9.556-15.539-12.794-16.828a1.176 1.176 0 0 1-.686-1.458c.887-2.61 3.048-9.313 3.048-12.66 0-4.211-1.86-7.256-5.9-7.256-5.816 0-7.266 8.322-7.37 17.254a1.084 1.084 0 0 1-1.074 1.08h-5.73c-.59 0-1.067-.484-1.074-1.08-.103-8.932-1.553-17.254-7.369-17.254"/><path fill="#FEDC90" d="M47.903 73.202c-13.158 0-27.64-7.115-27.662-16.326v.043c0 11.403 9.727 19.997 27.662 19.997s27.661-8.594 27.661-19.997v-.043c-.022 9.21-14.503 16.326-27.661 16.326"/><path fill="#633001" d="M40.592 54.047c0 3.11-1.455 4.73-3.25 4.73-1.794 0-3.249-1.62-3.249-4.73 0-3.11 1.455-4.73 3.25-4.73 1.794 0 3.249 1.62 3.249 4.73m21.12 0c0 3.11-1.455 4.73-3.25 4.73-1.794 0-3.248-1.62-3.248-4.73 0-3.11 1.454-4.73 3.249-4.73 1.794 0 3.25 1.62 3.25 4.73"/><defs><linearGradient id="a" x1="48" x2="48" y1="0" y2="96" gradientUnits="userSpaceOnUse"><stop stop-color="#53DEE9"/><stop offset="1" stop-color="#1FC7D4"/></linearGradient></defs></svg>
